X:1
T:Shall I Let Him In?
T:Shall I Let Him In?
T:Horatio Richmond Palmer
T:Horatio Richmond Palmer, 1877
T:Public Domain Courtesy of the Cyber Hymnal™
C:Horatio Richmond Palmer
Z:Public Domain
Z:Courtesy of the Cyber Hymnal™
%%score 1 ( 2 3 )
L:1/8
Q:1/4=100
M:6/8
K:F
V:1 treble 
V:2 bass 
V:3 bass 
V:1
 [FA]2 [FA] [FA][CG][CF] | [Ec]2 [Ec] [FA]3 | [EG]2 [EG] [DF]2 [EG] | [FA]6 | %4
w: 1.~Christ is knock- ing at|my sad heart;|Shall I let Him|in?|
w: 2.~Shall I send Him the|lov- ing word;|Shall I let Him|in?|
w: 3.~Yes, I’ll o- pen this|heart’s proud door,|Yes, I’ll let him|in;|
 [FA][FA][FA] [FA][CG][CF] | [Ec]2 [Ec] [FA]2 [EG] | [DF]2 [DF] [FA]2 [CG] | [CF]6 | %8
w: Pa- tient- ly plead- ing with|my sad heart; Oh!|shall I let Him|in?|
w: Meek- ly ac- cept- ing my|gra- cious Lord; Oh!|shall I let Him|in?|
w: Glad- ly I’ll wel- come Him|ev- er- more; Oh!|yes, I’ll let him|in.|
 [EG]2 [EG] [EG][^D^F][EG] | [GB]2 [FA] [EG]3 | [FA]2 [FA] [FA][F^G][FA] | [Fc]2 [EB] [FA]3 | %12
w: Cold and proud is my|heart with sin;|Dark and cheer- less is|all with- in;|
w: He can in- fi- nite|love im- part;|He can par- don this|re- bel heart;|
w: Bless- èd Sav- ior, a-|bide with me;|Cares and tri- als will|light- er be:|
 [Fc]2 [Fc] [Fc][F=B][Fc] | [Fd][Fe][Ff] [Fc]2 [CA] | [DF]2 [DF] [FA]2 [CG] | [CF]6 |] %16
w: Christ is bid- ding me|turn un- to Him, Oh!|shall I let Him|in?|
w: Shall I bid Him for-|ev- er de- part, Or|shall I let Him|in?|
w: I am safe if I’m|on- ly with Thee, Oh!|bless- èd Lord, come|in.|
V:2
 [F,C]2 [F,C] [F,C][G,B,]A, | [G,C]2 [C,C] [F,C]3 | [C,B,]2 [C,B,] [D,A,]2 [C,C] | [F,C]6 | %4
 [F,C][F,C][F,C] [F,C][G,B,]A, | [G,C]2 [C,C] [F,C]2 [C,B,] | [D,A,]2 [D,A,] [C,C]2 [C,B,] | %7
 [F,A,]6 | [C,C]2 [C,C] [C,C][C,C][C,C] | [C,C]2 [C,C] [C,C]3 | [F,C]2 [F,C] [F,C][F,=B,][F,C] | %11
 [A,F]2 [G,C] [F,C]3 | [F,A,]2 [F,A,] [F,A,][F,^G,][F,A,] | [F,B,][F,C][F,D] [F,A,]2 F, | %14
 [D,A,]2 [D,A,] [C,C]2 [C,B,] | [F,A,]6 |] %16
V:3
 x5 A, | x6 | x6 | x6 | x5 A, | x6 | x6 | x6 | x6 | x6 | x6 | x6 | x6 | x5 F, | x6 | x6 |] %16

